X:243
T:Feet Washing, The
R:Reel
B:The Athole Collection
M:C|
L:1/8
K:C Minor
g|:ec c/c/c c2 Gc|Bcde fbfd|ec c/c/c ~c2 Gc|egfd c/c/c g:|
efge defb|dBfB gBfd|efge defb|dBfd c/c/c c2|efge defb|
dBfB gBfd|efg=a bgfe|dBfd c/c/c ~g2||

